X:1
T:大提琴练习曲_Book1_P6_No.14
T:大提琴练习曲_Book1_P8_No.14
%%score 1 2
L:1/8
Q:1/4=80
M:4/4
K:C
V:1 bass nm="Piano" snm="Pno."
V:2 bass nm="大提琴" snm="Vc."
V:1
 z8 | C,,2 C,,2 C,,2 C,,2 | C,,8 | D,,8 | E,,4 F,,4 | G,,2 A,,2 B,,2 C,2 | D,6 E,2 | %7
 F,2 G,2 F,2 E,2 | D,2 E,2 D,2 C,2 | B,,2 A,,2 G,,2 F,,2 | E,,8 | F,,8 | G,,4 A,,4 | %13
 B,,2 C,2 D,2 E,2 | F,6 G,2 | A,2 B,2 A,2 G,2 | F,2 G,2 F,2 E,2 | D,2 C,2 B,,2 A,,2 | %18
 G,,4 (A,,2 B,,2) | C,2 D,2 E,2 ^F,2 | G,4 (B,2 A,2) | G,2 ^F,2 E,2 D,2 | C,2 A,,2 B,,2 C,2 | %23
 D,2 E,2 ^F,2 G,2 | A,4 (C2 B,2) | A,2 G,2 ^F,2 E,2 | D,2 B,,2 C,2 D,2 | E,2 ^F,2 G,2 A,2 | %28
 B,2 C2 D2 C2 | B,2 A,2 G,2 ^F,2 | E,2 ^F,2 G,2 F,2 | E,2 D,2 C,2 B,,2 | A,,2 B,,2 C,2 B,,2 | %33
 A,,2 G,,2 !4!^F,,2 !2!E,,2 | !1!D,,8 | D,8 | ^C,4 E,4 | A,,4 G,4 | ^F,4 A,4 | D,4 =C4 | %40
 B,2 D2 D,2 =F,2 | E,2 G,2 C,2 C2 | A,2 C2 F,2 A,2 | D,2 F,2 B,,2 B,2 | G,2 B,2 E,2 G,2 | %45
 C,2 E,2 A,,2 A,2 | F,2 A,2 D,2 F,2 | B,,2 D,2 G,,2 G,2 | E,2 G,2 _B,,2 E,2 | %49
 G,,2 _B,,2 C,,2 E,,2 | F,,8 | uG,,4 A,,4 | uB,,2 C,2 D,2 E,2 | F,2 C,2 _B,,2 A,,2 | uG,,8 | %55
 vA,,4 _B,,4 | C,2 D,2 E,2 F,2 | G,2 F,2 E,2 D,2 | ^C,2 E,2 A,,2 G,2 | ^F,2 A,2 D,2 =C2 | %60
 B,2 D2 D,2 =F,2 | E,2 G,2 C,2 _B,2 | A,2 C2 A,2 G,2 | F,2 A,2 F,2 E,2 | D,2 F,2 D,2 C,2 | %65
 B,,2 G,,2 F,,2 D,,2 | C,,4 C,4 | B,,2 D,2 G,,2 F,2 | E,2 G,2 C,2 C2 | B,2 D2 G,2 B,2 | %70
 C2 G,2 C2 B,2 | A,2 G,2 F,2 A,2 | B,2 F,2 B,2 A,2 | G,2 F,2 E,2 G,2 | A,2 E,2 A,2 G,2 | %75
 F,2 E,2 D,2 F,2 | G,2 D,2 G,2 F,2 | E,2 D,2 C,2 _B,,2 | A,,4 F,4 | C,2 A,2 F,2 C2 | %80
 G,,2 G,2 E,2 C2 | G,,2 F,2 D,2 B,2 | C6 G,2 | E,2 C,2 G,,2 E,,2 | C,,8 |] %85
V:2
 z8 | C,,2 C,,2 C,,2 C,,2 | C,,8 | D,,8 | E,,4 F,,4 | G,,2 A,,2 B,,2 C,2 | D,6 E,2 | %7
 F,2 G,2 F,2 E,2 | D,2 E,2 D,2 C,2 | B,,2 A,,2 G,,2 F,,2 | E,,8 | F,,8 | G,,4 A,,4 | %13
 B,,2 C,2 D,2 E,2 | F,6 G,2 | A,2 B,2 A,2 G,2 | F,2 G,2 F,2 E,2 | D,2 C,2 B,,2 A,,2 | %18
 G,,4 (A,,2 B,,2) | C,2 D,2 E,2 ^F,2 | G,4 (B,2 A,2) | G,2 ^F,2 E,2 D,2 | C,2 A,,2 B,,2 C,2 | %23
 D,2 E,2 ^F,2 G,2 | A,4 (C2 B,2) | A,2 G,2 ^F,2 E,2 | D,2 B,,2 C,2 D,2 | E,2 ^F,2 G,2 A,2 | %28
 B,2 C2 D2 C2 | B,2 A,2 G,2 ^F,2 | E,2 ^F,2 G,2 F,2 | E,2 D,2 C,2 B,,2 | A,,2 B,,2 C,2 B,,2 | %33
 A,,2 G,,2 !4!^F,,2 !2!E,,2 | !1!D,,8 | D,8 | ^C,4 E,4 | A,,4 G,4 | ^F,4 A,4 | D,4 =C4 | %40
 B,2 D2 D,2 =F,2 | E,2 G,2 C,2 C2 | A,2 C2 F,2 A,2 | D,2 F,2 B,,2 B,2 | G,2 B,2 E,2 G,2 | %45
 C,2 E,2 A,,2 A,2 | F,2 A,2 D,2 F,2 | B,,2 D,2 G,,2 G,2 | E,2 G,2 _B,,2 E,2 | %49
 G,,2 _B,,2 C,,2 E,,2 | F,,8 | uG,,4 A,,4 | uB,,2 C,2 D,2 E,2 | F,2 C,2 _B,,2 A,,2 | uG,,8 | %55
 vA,,4 _B,,4 | C,2 D,2 E,2 F,2 | G,2 F,2 E,2 D,2 | ^C,2 E,2 A,,2 G,2 | ^F,2 A,2 D,2 =C2 | %60
 B,2 D2 D,2 =F,2 | E,2 G,2 C,2 _B,2 | A,2 C2 A,2 G,2 | F,2 A,2 F,2 E,2 | D,2 F,2 D,2 C,2 | %65
 B,,2 G,,2 F,,2 D,,2 | C,,4 C,4 | B,,2 D,2 G,,2 F,2 | E,2 G,2 C,2 C2 | B,2 D2 G,2 B,2 | %70
 C2 G,2 C2 B,2 | A,2 G,2 F,2 A,2 | B,2 F,2 B,2 A,2 | G,2 F,2 E,2 G,2 | A,2 E,2 A,2 G,2 | %75
 F,2 E,2 D,2 F,2 | G,2 D,2 G,2 F,2 | E,2 D,2 C,2 _B,,2 | A,,4 F,4 | C,2 A,2 F,2 C2 | %80
 G,,2 G,2 E,2 C2 | G,,2 F,2 D,2 B,2 | C6 G,2 | E,2 C,2 G,,2 E,,2 | C,,8 |] %85

